src/assets/icons/pul-icon-file-pdf.svg

<!-- Generated by IcoMoon.io -->
<svg version="1.1" xmlns="http://www.w3.org/2000/svg" width="48" height="48" viewBox="0 0 48 48">
<title>file-pdf</title>
<path d="M43.922 12.616c-0.050-0.124-0.124-0.232-0.216-0.322l-11.998-12c-0.092-0.090-0.202-0.164-0.324-0.214-0.12-0.052-0.25-0.080-0.384-0.080h-26c-0.552 0-1 0.448-1 1v46c0 0.552 0.448 1 1 1h38c0.552 0 1-0.448 1-1v-34c0-0.132-0.028-0.264-0.078-0.384zM32 3.414l8.586 8.586h-8.586v-8.586zM6 46v-44h24v11c0 0.552 0.448 1 1 1h11v32h-36z"></path>
<path d="M37 26h-4.51c-0.552 0-1 0.448-1 1v10.376c0 0.552 0.448 1 1 1s1-0.448 1-1v-4.188h2.282c0.552 0 1-0.448 1-1 0-0.55-0.448-1-1-1h-2.282v-3.188h3.51c0.552 0 1-0.448 1-1s-0.448-1-1-1z"></path>
<path d="M24.060 26h-1.876c-0.552 0-1 0.448-1 1v10.376c0 0.552 0.448 1 1 1h1.876c2.714 0 4.54-2.486 4.54-6.188s-1.824-6.188-4.54-6.188zM24.060 36.376h-0.876v-8.376h0.876c1.874 0 2.54 2.256 2.54 4.188s-0.666 4.188-2.54 4.188z"></path>
<path d="M15.042 26h-2.482c-0.552 0-1 0.448-1 1v10.376c0 0.552 0.448 1 1 1s1-0.448 1-1v-4.188h1.48c2.31 0 3.48-1.208 3.48-3.594s-1.17-3.594-3.478-3.594zM15.042 31.188h-1.482v-3.188h1.48c1.276 0 1.48 0.378 1.48 1.594s-0.202 1.594-1.478 1.594z"></path>
</svg>

<svg xmlns="http://www.w3.org/2000/svg" viewBox="0 0 48 48">
    <path d="M43.922 12.616a.941.941 0 0 0-.216-.322l-11.998-12a1.016 1.016 0 0 0-.324-.214A.964.964 0 0 0 31 0H5a1 1 0 0 0-1 1v46a1 1 0 0 0 1 1h38a1 1 0 0 0 1-1V13c0-.132-.028-.264-.078-.384zM32 3.414L40.586 12H32V3.414zM6 46V2h24v11a1 1 0 0 0 1 1h11v32H6z"/>
    <path d="M37 26h-4.51a1 1 0 0 0-1 1v10.376a1 1 0 0 0 2 0v-4.188h2.282a1 1 0 0 0 0-2H33.49V28H37a1 1 0 0 0 0-2zM24.06 26h-1.876a1 1 0 0 0-1 1v10.376a1 1 0 0 0 1 1h1.876c2.714 0 4.54-2.486 4.54-6.188S26.776 26 24.06 26zm0 10.376h-.876V28h.876c1.874 0 2.54 2.256 2.54 4.188s-.666 4.188-2.54 4.188zM15.042 26H12.56a1 1 0 0 0-1 1v10.376a1 1 0 0 0 2 0v-4.188h1.48c2.31 0 3.48-1.208 3.48-3.594S17.35 26 15.042 26zm0 5.188H13.56V28h1.48c1.276 0 1.48.378 1.48 1.594s-.202 1.594-1.478 1.594z"/>
</svg>
